!!!OTL: Mush a Doody
!!!ONM: 95.
**kern
*clefG2
*k[b-e-a-]
*E-:
*M4/4
*MM80
{4B-
=1
8e-
8e-
(16e-
8.f)
16e-
8e-
16e-
8.g
16g
=2
8.f}
{16B-
8.d
16d
4f
4e-
=3
8.c
16c
4.B-
8r}
{8.b-
16b-
=4
4.cc
8r
4r
8.b-
16cc
=5
8.dd
16cc
4b-}
{8.g
16f
8.e-
16f
=6
4a-
8.g
16f
8.e-
16c
4a-
=7||
2r}
{4.g
8e-
=8
8.f
16e-
4B-}
{4.b-
8g
=9
8.cc
16b-
4g}
{8.g
16f
4e-
=10
4.e-
8r
4r}
==
*-
!!!CNT: Folksongs of Maritime Canada
!!!MRD: 1928///-1932///
!!!OCL: Helen Creighton
!!!YOR: Songs and Ballads from Nova Scotia
!!!PPR: J.M. Dent & Sons, Limited
!!!PPP: Toronto, Canada
!!!PDT: 1932///
!!!reprint: Dover Publications, 1992: ISBN 0-486-21703-5
!!!ENC1: Craig Stuart Sapp (music and bibliographic data)                       
!!!ENC2: Marcus Pearce (phrase markings and key designations)                   
!!!ENC3: Darrell Conklin (phrase markings and key designations)   
!!!END: 2002/04/10/
!!!EEV: 2004/06/05
!!!MPN: Mrs. William McNab
!!!PPG: 205
!!!EFL: 96/152
!!!ARE: Canada; Nova Scotia
!!!verses: 2
!!!VTS: 3269232396
